Breeze Round Dark/actions/32/mail-forwarded.svg

<svg xmlns="http://www.w3.org/2000/svg" viewBox="0 0 32 32">
  <defs id="defs3051">
<style type="text/css" id="current-color-scheme">.ColorScheme-Text {color:#fcfcfc;}</style>
  </defs>
 <path 
     style="fill:currentColor;fill-opacity:1;stroke:none" 
     d="m 5,5 v 4 c 0,0 -3,2 -3,4 0,2 0,10 0,10 0,0 0,4 4,4 4,0 13,0 13,0 V 26 C 19,26 9,26 6,26 3,26 3,23 3,23 3,23 3.0331973,18 3.0165986,16 3,14 5,14 5,14 H 5.7871094 L 16,19.570312 26.212891,14 c 0,0 -1.212891,0 0.787109,0 2,0 2,2 2,2 h 1 c 0,0 0,-1 0,-3 0,-2 -3,-4 -3,-4 V 5 Z m 1,1 h 20 v 6.974609 L 16,18.429688 6,12.974609 Z M 8,8 V 9 H 24 V 8 Z m 0,3 v 1 h 9 v -1 z m 17.484375,5 -0.728516,0.726562 4.240235,4.228516 L 20,21 v 1 l 9.060547,-0.01758 -4.304688,4.291016 L 25.484375,27 31,21.5 Z"
     class="ColorScheme-Text"
     />
</svg>

<svg xmlns="http://www.w3.org/2000/svg" viewBox="0 0 32 32">
  <defs id="defs3051">
    <style type="text/css" id="current-color-scheme">
      .ColorScheme-Text {
        color:#eff0f1;
      }
      </style>
  </defs>
 <path 
     style="fill:currentColor;fill-opacity:1;stroke:none" 
     d="M 5 5 L 5 9 L 2 13 L 2 27 L 19 27 L 19 26 L 3 26 L 3 14 L 5 14 L 5.7871094 14 L 16 19.570312 L 26.212891 14 L 27 14 L 29 14 L 29 16 L 30 16 L 30 13 L 27 9 L 27 5 L 5 5 z M 6 6 L 26 6 L 26 12.974609 L 16 18.429688 L 6 12.974609 L 6 6 z M 8 8 L 8 9 L 24 9 L 24 8 L 8 8 z M 8 11 L 8 12 L 17 12 L 17 11 L 8 11 z M 25.484375 16 L 24.755859 16.726562 L 28.996094 20.955078 L 20 21 L 20 22 L 29.060547 21.982422 L 24.755859 26.273438 L 25.484375 27 L 31 21.5 L 25.484375 16 z "
     class="ColorScheme-Text"
     />
</svg>
